X:1
T:Kings of the Orient
T:Asa Hull
T:Kings of the Orient
T:Public Domain
T:Public Domain
C:Asa Hull
Z:Public Domain
%%score ( 1 2 ) ( 3 4 )
L:1/8
M:2/4
K:D
V:1 treble 
V:2 treble 
V:3 bass 
V:4 bass 
V:1
 D | [DF]>[D^E] [DF][=EG] | [FA]2 [DF]2 | [EG]>[DF] [EG][FA] | [DF]2 D2 | [GB]>[G^A] [GB][Gc] | %6
w: 1.~O|from east- ern shore,|Why speed|ye on your way?|What have|gained of lore, Ye|
w: 2.~The|pings of your steeds,|The splen-|dor of your state,|The Star|on- ward leads, Tell|
w: 3.~Why|ye in your hands,|Yon gold|and spice and gem?|Why haste|dis- tant lands, T’ward|
 [Fd]2 [DF]2 | [CE][CA] [CG][CE] | D3 [Fd] | [Ec]>[Ec] [GB][Gc] | [Fd]2 [GB]2 | [FA][DF] [FA][Fd] | %12
w: rest not|night nor day? The|heav’n- ly|have we Read o’er|with ea-|ger eye, And writ-|
w: of a|pur- pose great! “Je-|ho- vah|a sign, And us|with wis-|dom blessed, And while|
w: lit- tle|Beth- le- hem? “The|mys- tic|pro- claims The Star|as Ju-|dah’s own, And Da-|
 [Ec]2 [Ge]2 | [Fd][GB] [FA][DF] | [CE]2 [EG]2 | [DF][FA] [Fd][Gc] | [Fd]3 z || %17
w: ten there|we see The King|of kings|is nigh! * *||
w: yon light|shall shine, Our jour-|ney’s t’ward|the west!” Kings of|the|
w: vid’s ci-|ty names, Where He|shall set|His throne!” * *||
"^Full Chorus" [Fd]2 [Ad]>[Ad] | [Gd]>[Gd] [Fd]2 | F2 ED | [CA]3 z | [Ec]2 [Fd]>[Fd] | %22
w: |||||
w: Or- i- ent,|hi- ther ye|come! Out of|East,|is that your|
w: |||||
 [Ge]>[Fd] [Ec]2 | [Ec]2 [DB]>[DB] | [CA]3 z | [FA]2 [DF][FA] | [Fd]>[Gc] [Ad]2 | [Ge]2 [Ad]>[Ae] | %28
w: ||||||
w: home? Tid- ings|most won- der-|ful|to us ye|bring! Wel- come,|wel- come, wel-|
w: ||||||
 [Af]3 z | [Gd]2 [GB]2 | [FA]2 [DF]2 | [CE]2 [CA]>[A,C] | [A,D]3 |] %33
w: |||||
w: come|we sing!||||
w: |||||
V:2
 D | x4 | x4 | x4 | x2 D2 | x4 | x4 | x4 | D3 x | x4 | x4 | x4 | x4 | x4 | x4 | x4 | x4 || x4 | %18
w: kings||||ye||||sign||||||||||
w: trap-||||that||||gave||||||||||
w: bear||||from||||scroll||||||||||
 x4 | F2 ED | x4 | x4 | x4 | x4 | x4 | x4 | x4 | x4 | x4 | x4 | x4 | x4 | x3 |] %33
w: |||||||||||||||
w: |the dark- some||||||||||||||
w: |||||||||||||||
V:3
 [D,F,] | [D,A,]>[D,^G,] [D,A,][D,D] | [D,D]2 [D,A,]2 | [A,,A,]>[A,,A,] [A,,A,][A,,A,] | %4
 [D,A,]2 [F,A,]2 | G,>[G,D] [G,D][G,B,] | [D,A,]2 [D,A,]2 | [A,,A,][A,,E,] [A,,A,][A,,G,] | %8
 [D,F,]3 [D,A,] | [A,,A,]>[A,,A,] [A,,A,][A,,A,] | [D,A,]2 [D,D]2 | [D,D][D,A,] [D,D][D,A,] | %12
 [A,,A,]2 [C,A,]2 | [D,A,][D,D] [D,D][D,A,] | [A,,A,]2 [C,A,]2 | [D,A,][D,D] [D,A,][A,,A,] | %16
 [D,A,]3 z || [D,A,]2 [D,=C]>[D,C] | [D,B,]>[D,B,] [D,A,]2 | F,2 E,D, | [A,,E,]3 z | %21
 [A,,A,]2 [A,,A,]>[A,,A,] | [A,,A,]>[A,,A,] [A,,A,]2 | [E,A,]2 [E,^G,]>[E,G,] | [A,,A,]3 z | %25
 [D,D]2 [D,A,][D,D] | [D,A,]>[E,A,] [F,A,]2 | [G,B,]2 [F,D]>[A,C] | D3 z | [G,B,]2 [G,D]2 | %30
 [D,D]2 [D,A,]2 | [A,,A,]2 [A,,A,]>[A,,G,] | [D,F,]3 |] %33
V:4
 x | x4 | x4 | x4 | x4 | G,3/2 x5/2 | x4 | x4 | x4 | x4 | x4 | x4 | x4 | x4 | x4 | x4 | x4 || x4 | %18
 x4 | F,2 E,D, | x4 | x4 | x4 | x4 | x4 | x4 | x4 | x4 | D3 x | x4 | x4 | x4 | x3 |] %33

